X:92
T: S IST ALLES DUNKEL
N: E0698
O: Europa, Mitteleuropa, Deutschland, Hessen, Frankfurt; Oberhessen
R: Liebes - Lied, Leid, Klage
M: 3/4
L: 1/8
K: G
DDC | B,DGBBB | Bdd
dcB | A2c2BA | G2z
GFG | A3AGE | D2z
FFG | A3AGE | D2z
DDD | B,DGBBB | B2d
dcB | A2ccBA | G2z
DDD | B,DGBBB | B2d
dcB | A2ccBA | G2z

@@@ Tune index: 4405
